!!!OTL: Gute Meinung Wenn ich morgens frueh aufstehe
!!!ARE: Europa, Mitteleuropa, Lothringen, Hambach
!!!SCT: D0068
!!!YEM: Copyright 1995, estate of Helmut Schaffrath.
**kern
*ICvox
*Ivox
*M4/4
*k[b-e-a-]
*E-:
{8e-
8f
8g
8a-
4b-
4b-
=1
8cc
8dd
8ee-
8cc
8cc
8b-
4b-}
=2
{8b-
8a-
8cc
8b-
4b-
8e-
8f
=3
8g
8a-
8g
8f
8f
8e-
4e-}
=4
{4.g
8b-
8b-
8a-
4a-
=5
8g
8e-
8b-
8g
8g
8f
4f}
=6
{4.g
8b-
8b-
8a-
4a-
=7
8g
8e-
8b-
8g
8g
8f
4f}
=8
{8e-
8f
8g
8a-
4b-
4b-
=9
8cc
8dd
8ee-
8cc
2b-}
=10
{8b-
8a-
8cc
8b-
4b-
8e-
8f
=11
8g
8a-
8g
8f
4e-
4r}
=12
{8e-
8f
8g
8a-
4b-
4b-
=13
8cc
8dd
8ee-
8cc
2b-}
=14
{8b-
8a-
8cc
8b-
4b-
8e-
8f
=15
8g
8a-
8g
8f
4e-
4r}
==
!!!AGN: geistliches Lied
!! Verzierungen; Inzipit = Variante zum Lied
!!!ONB: ESAC (Essen Associative Code) Database: DVA
!!!AMT: simple quadruple
!!!AIN: vox
!!!EED: Helmut Schaffrath
!!!EEV: 1.0
*-
